X: 212
Q: "Slow"
M: C
L: 1/8
K: D
V: 1
|2 de (d/e/f/).d/ Te2d2 ||\
fg/f/ ed c>B ^A2 | ~dc/d/ ~ed/e/ {^de}f>F{F}E2 |\
fg/f/ed c>B^A2 | F>f (e/g/)(f/e/) ~d>c {c}B2 |
fg/f/ ed {d}c>B ^A2 | .d/.d/~d .e/.e/~e {^de}f>F {F}E2 |\
V: 2 clef=bass middle=d
z !Segno!|:\
d2d2 d2d2 | d2d2 g^g(a=g) | d2d2 d2d2 |` d2g^g a2A2 :|
|2 dafd aAd2 ||\
d2d2 ef/^e/ f=e | dfac ddcA | d2g^g ab/=g/ fe | d2cd/e/ fFB2 |
d2d2 ef/^e/ f=e | dfac d/e/f/^g/ a/=g/f/e/ | d2f2 gaHf2 | zfdf aA!Segno!d2 |]


